fs/desktop_signal_20_filled.svg

<svg viewBox="0 0 20 20" fill="none" xmlns="http://www.w3.org/2000/svg" height="1em" width="1em">
  <path d="M12 1C11.8191 1 11.6397 1.00687 11.4621 1.02039C11.1867 1.04133 10.9805 1.28152 11.0014 1.55687C11.0224 1.83222 11.2626 2.03845 11.5379 2.0175C11.6903 2.00591 11.8444 2 12 2C15.3137 2 18 4.68629 18 8C18 8.15557 17.9941 8.30966 17.9825 8.46207C17.9615 8.73742 18.1678 8.97761 18.4431 8.99856C18.7185 9.01951 18.9587 8.81327 18.9796 8.53793C18.9931 8.3603 19 8.1809 19 8C19 4.13401 15.866 1 12 1ZM12 3C11.8126 3 11.6274 3.01033 11.4451 3.03049C11.1706 3.06083 10.9727 3.30793 11.003 3.5824C11.0334 3.85687 11.2805 4.05478 11.5549 4.02444C11.7009 4.0083 11.8494 4 12 4C14.2091 4 16 5.79086 16 8C16 8.15061 15.9917 8.2991 15.9756 8.44506C15.9452 8.71953 16.1431 8.96663 16.4176 8.99697C16.6921 9.02731 16.9392 8.82941 16.9695 8.55494C16.9897 8.37256 17 8.1874 17 8C17 5.23858 14.7614 3 12 3ZM12 5C11.7952 5 11.5946 5.0206 11.4005 5.06C11.1299 5.11494 10.9551 5.37885 11.01 5.64948C11.0649 5.9201 11.3288 6.09495 11.5995 6.04002C11.7285 6.01383 11.8624 6 12 6C13.1046 6 14 6.89543 14 8C14 8.13764 13.9862 8.27153 13.96 8.40053C13.9051 8.67116 14.0799 8.93507 14.3505 8.99001C14.6211 9.04494 14.8851 8.87009 14.94 8.59947C14.9794 8.40536 15 8.20483 15 8C15 6.34315 13.6569 5 12 5ZM10.0792 2.00098H3.5C2.67157 2.00098 2 2.67255 2 3.50098V13.501C2 14.3294 2.67157 15.001 3.5 15.001H7V17.001H5.5C5.22386 17.001 5 17.2248 5 17.501C5 17.7771 5.22386 18.001 5.5 18.001H14.5C14.7761 18.001 15 17.7771 15 17.501C15 17.2248 14.7761 17.001 14.5 17.001H13V15.001H16.5C17.3284 15.001 18 14.3294 18 13.501V9.92115C17.8035 9.85479 17.6262 9.74919 17.4768 9.61427C17.1698 9.89072 16.7506 10.0399 16.3077 9.99092C15.9794 9.95463 15.6877 9.81499 15.4613 9.60799C15.1196 9.91929 14.6392 10.069 14.1516 9.97002C13.82 9.9027 13.5363 9.73077 13.3279 9.49558C12.9747 9.80939 12.5096 10 12 10C10.8954 10 10 9.10457 10 8C10 7.49038 10.1906 7.02528 10.5044 6.6721C10.2692 6.46375 10.0973 6.18005 10.03 5.84841C9.93099 5.36076 10.0807 4.88037 10.392 4.53874C10.185 4.31231 10.0454 4.02055 10.0091 3.69228C9.96012 3.24937 10.1093 2.83022 10.3857 2.52325C10.251 2.37401 10.1456 2.1971 10.0792 2.00098ZM12 15.001V17.001H8V15.001H12ZM13 8C13 8.55228 12.5523 9 12 9C11.4477 9 11 8.55228 11 8C11 7.44772 11.4477 7 12 7C12.5523 7 13 7.44772 13 8Z" fill="#212121"/>
</svg>

<svg viewBox="0 0 20 20" fill="none" xmlns="http://www.w3.org/2000/svg" height="1em" width="1em">
  <path d="M12 1c-.18 0-.36.007-.538.02a.5.5 0 1 0 .076.998 6 6 0 0 1 6.445 6.445.5.5 0 1 0 .997.075A7 7 0 0 0 12 1Zm0 2c-.187 0-.373.01-.555.03a.5.5 0 0 0 .11.994 4 4 0 0 1 4.42 4.42.5.5 0 1 0 .995.11A5 5 0 0 0 12 3Zm0 2c-.205 0-.405.02-.6.06a.5.5 0 0 0 .2.98 2 2 0 0 1 2.36 2.36.5.5 0 0 0 .98.2A3 3 0 0 0 12 5Zm-1.92-2.999H3.5a1.5 1.5 0 0 0-1.5 1.5v10a1.5 1.5 0 0 0 1.5 1.5H7v2H5.5a.5.5 0 1 0 0 1h9a.5.5 0 0 0 0-1H13v-2h3.5a1.5 1.5 0 0 0 1.5-1.5v-3.58a1.494 1.494 0 0 1-.523-.307 1.496 1.496 0 0 1-2.016-.006 1.498 1.498 0 0 1-2.133-.112 2 2 0 0 1-2.823-2.823 1.498 1.498 0 0 1-.112-2.133 1.496 1.496 0 0 1-.006-2.015A1.495 1.495 0 0 1 10.078 2Zm1.92 13v2H8v-2h4ZM13 8a1 1 0 1 1-2 0 1 1 0 0 1 2 0Z" fill="#212121"/>
</svg>
